X:1
T:Title
%%score { ( 1 4 5 ) | ( 2 3 ) }
L:1/8
Q:1/4=100
M:6/8
K:Ab
V:1 treble nm="Grand Piano"
V:4 treble 
V:5 treble 
V:2 bass 
V:3 bass 
V:1
 [Ec]2 B A2 [EG] | [FA]2 F .[CE]3 | [CA]2 [CA] [EA][DG][CA] | B2 c .B3 | [Ec]2 B [CA]2 [EG] | %5
w: James~M.~Black * * *|||||
 [FA]2 F .[CE]3 | E2 c BFG | [CA]6 | [Ec]2 [Ec] [CA][DB][Ec] | [Fd]3 .[Ec]3 | c2 A d2 A | %11
w: ||||||
 [Ec]6[K:bass] | B2 B [=DB][Ec][F=d] | [Ge]3 B2 c | B2 A G2 [=DF] | E6[K:bass] | %16
w: |||||
 [Ec]2 [Ec] [CA][DB][Ec] | [Fd]3 .[Ec]3 | c2 A d2 c | F6 | [FA]2 [=EG] [FA]2 [A,DF] | %21
w: |||||
 .[A,CE]2 [Ec] [Ee]2 [Fd] | [Ec]3 B3 | [A,CA]6 |] %24
w: |||
V:2
 z2 D C2 C, | z2 D .A,,3 | [A,,E,]2 [A,,E,] [C,A,][B,,E,][A,,A,] | [E,E]2- [E,A,E-] [E,G,E]3 | %4
 z2 D A,,2 C, | z2 D .A,,3 | [E,A,C]2 [E,A,E] [E,G,D][E,G,D][E,B,D] | [A,,A,]6 | %8
 [A,,A,]2 [A,,A,] [A,,E,][A,,E,][A,,A,] | [A,,A,]3 .[A,,A,]3 | [A,E]2 [A,C] [A,F]2[K:bass] [A,C] | %11
 .[A,,A,]2 E, z3 | [E,G,E]2 [E,G,E] [B,,F,][B,,F,][B,,B,] | [E,B,]3 [E,G,E]2 [E,G,E] | %14
 [G,B,E]2 [A,CF][K:bass] [B,E]2 [B,,A,] | [E,G,]2 D, .C,3 | %16
 [A,,A,]2 [A,,A,] [A,,E,][A,,E,][A,,A,] | [A,,A,]3 .[A,,A,]3 | [A,E]2 [A,CE] [G,B,E]2 [A,E] | %19
 [D,A,D]6 | [D,D]2 [D,D] [D,D]2 D, | z A[A,,A,] [C,A,]2 [D,A,] | [E,A,]E,E, D2- [E,D] | A,,6 |] %24
V:3
 A,,6 | D,3 z3 | x6 | .G,3 z3 | A,,3 z3 | D,3 z3 | x6 | x6 | x6 | x6 | x5[K:bass] x | x6 | x6 | %13
 x6 | x3[K:bass] x3 | x6 | x6 | x6 | x6 | x6 | x6 | .A,,3 z3 | z3 .[E,G,]3 | x6 |] %24
V:4
 x6 | x6 | x6 | x6 | x6 | x6 | x6 | x6 | x6 | x6 | x6 | z[K:bass] C,A, .A,3 | x6 | x6 | x6 | %15
 z3[K:bass] G,3 | x6 | x6 | x6 | x6 | x6 | x6 | z A,A, z2 G, | x6 |] %24
V:5
 x6 | x6 | x6 | x6 | x6 | x6 | x6 | x6 | x6 | x6 | x6 | x[K:bass] x5 | x6 | x6 | x6 | %15
 z2[K:bass] G, z2 B,, | x6 | x6 | x6 | x6 | x6 | x6 | x6 | x6 |] %24

